src/topics/icons/zapier.svg

<svg height="256" preserveAspectRatio="xMidYMid" viewBox="0 0 256 256" width="256" xmlns="http://www.w3.org/2000/svg"><path d="m159.998995 128.056308c-.004022 9.512019-1.745546 18.613794-4.914879 27.023786-8.40597 3.169333-17.515789 4.910857-27.03183 4.922922h-.108594c-9.507997-.012065-18.617816-1.749567-27.023786-4.9189-3.1693326-8.40597-4.9148785-17.515789-4.9189005-27.027808v-.112616c.004022-9.507997 1.745546-18.617816 4.9108565-27.019764 8.40597-3.1733546 17.519811-4.9189005 27.03183-4.9229225h.108594c9.516041.004022 18.62586 1.7495679 27.03183 4.9229225 3.169333 8.401948 4.910857 17.511767 4.914879 27.019764zm94.223283-21.388971h-74.716606l52.828908-52.8329301c-4.150699-5.8318932-8.780016-11.3018067-13.82762-16.3494108v-.004022c-5.047604-5.0435821-10.517518-9.6648547-16.345389-13.8155538l-52.83293 52.8329301v-74.71660649c-6.91381-1.16235664-14.016654-1.77772191-21.264289-1.78174391h-.132726c-7.247635.004022-14.346457.61938727-21.264289 1.78174391v74.71660649l-52.8329301-52.8329301c-5.8318932 4.1506991-11.2977847 8.7759937-16.3373448 13.8235978l-.028154.0201099c-5.0395601 5.0395601-9.6568107 10.5014297-13.8075098 16.3252789l52.8369521 52.8329301h-74.71660649s-1.78174391 14.032742-1.78174391 21.288421v.088484c0 7.255679.61536528 14.366567 1.78174391 21.288421h74.71660649l-52.8369521 52.83293c8.3094422 11.659764 18.5132443 21.867588 30.1730086 30.173009l52.8329301-52.836952v74.720628c6.91381 1.158335 14.004588 1.769678 21.240157 1.777722h.18099c7.239591-.008044 14.338413-.619387 21.240157-1.777722v-74.720628l52.836952 52.836952c5.827871-4.150699 11.293763-8.775994 16.341367-13.819576l.012066-.012066c5.03956-5.047604 9.668877-10.517518 13.815554-16.341367l-52.836952-52.83293h74.72465c1.162357-6.909788 1.769678-14.000566 1.777722-21.240157v-.185012c-.008044-7.239591-.615365-14.330369-1.777722-21.240157z" fill="#ff4a00"/></svg>

<?xml version="1.0" encoding="UTF-8" standalone="no"?>
<svg width="256px" height="256px" viewBox="0 0 256 256" version="1.1" xmlns="http://www.w3.org/2000/svg" xmlns:xlink="http://www.w3.org/1999/xlink" preserveAspectRatio="xMidYMid">
    <g>
        <path d="M159.998995,128.056308 C159.994973,137.568327 158.253449,146.670102 155.084116,155.080094 C146.678146,158.249427 137.568327,159.990951 128.052286,160.003016 L127.943692,160.003016 C118.435695,159.990951 109.325876,158.253449 100.919906,155.084116 C97.7505734,146.678146 96.0050275,137.568327 96.0010055,128.056308 L96.0010055,127.943692 C96.0050275,118.435695 97.7465515,109.325876 100.911862,100.923928 C109.317832,97.7505734 118.431673,96.0050275 127.943692,96.0010055 L128.052286,96.0010055 C137.568327,96.0050275 146.678146,97.7505734 155.084116,100.923928 C158.253449,109.325876 159.994973,118.435695 159.998995,127.943692 L159.998995,128.056308 L159.998995,128.056308 Z M254.222278,106.667337 L179.505672,106.667337 L232.33458,53.8344069 C228.183881,48.0025137 223.554564,42.5326002 218.50696,37.4849961 L218.50696,37.4809741 C213.459356,32.437392 207.989442,27.8161194 202.161571,23.6654203 L149.328641,76.4983504 L149.328641,1.78174391 C142.414831,0.619387274 135.311987,0.00402199529 128.064352,0 L127.931626,0 C120.683991,0.00402199529 113.585169,0.619387274 106.667337,1.78174391 L106.667337,76.4983504 L53.8344069,23.6654203 C48.0025137,27.8161194 42.5366222,32.441414 37.4970621,37.4890181 L37.4689081,37.509128 C32.429348,42.5486881 27.8120974,48.0105577 23.6613983,53.8344069 L76.4983504,106.667337 L1.78174391,106.667337 C1.78174391,106.667337 0,120.700079 0,127.955758 L0,128.044242 C0,135.299921 0.615365279,142.410809 1.78174391,149.332663 L76.4983504,149.332663 L23.6613983,202.165593 C31.9708405,213.825357 42.1746426,224.033181 53.8344069,232.338602 L106.667337,179.50165 L106.667337,254.222278 C113.581147,255.380613 120.671925,255.991956 127.907494,256 L128.088484,256 C135.328075,255.991956 142.426897,255.380613 149.328641,254.222278 L149.328641,179.50165 L202.165593,232.338602 C207.993464,228.187903 213.459356,223.562608 218.50696,218.519026 L218.519026,218.50696 C223.558586,213.459356 228.187903,207.989442 232.33458,202.165593 L179.497628,149.332663 L254.222278,149.332663 C255.384635,142.422875 255.991956,135.332097 256,128.092506 L256,127.907494 C255.991956,120.667903 255.384635,113.577125 254.222278,106.667337 L254.222278,106.667337 Z" fill="#FF4A00"></path>
    </g>
</svg>
